raw-svg/star-half.svg

<svg fill="none" height="24" viewBox="0 0 24 24" width="24" xmlns="http://www.w3.org/2000/svg"><path clip-rule="evenodd" d="m12.1704 3.26956c.3394.07918.5796.38181.5796.73039v13.27005c0 .2787-.1546.5344-.4014.664l-5.19997 2.73c-.25264.1326-.55865.1104-.78949-.0573-.23083-.1677-.3465-.4519-.29841-.7332l.92365-5.4019-3.91828-3.825c-.20428-.1994-.27764-.4975-.18922-.76893.08841-.27144.32326-.46915.60581-.51l5.41935-.78352 2.42536-4.91603c.1542-.31261.5035-.47774.843-.39856zm-.9204 3.94572-1.1774 2.38651c-.10931.22157-.32075.37509-.56528.41041l-4.30601.6226 3.1126 3.0385c.1764.1722.25691.4201.21536.6631l-.73422 4.2941 3.45495-1.8139z" fill="#000" fill-rule="evenodd"/></svg>

<svg width="24" height="24" viewBox="0 0 24 24" fill="none" xmlns="http://www.w3.org/2000/svg">
<path fill-rule="evenodd" clip-rule="evenodd" d="M12.1704 3.26956C12.5098 3.34874 12.75 3.65137 12.75 3.99995V17.27C12.75 17.5487 12.5954 17.8044 12.3486 17.934L7.14863 20.664C6.89599 20.7966 6.58998 20.7744 6.35914 20.6067C6.12831 20.439 6.01264 20.1548 6.06073 19.8735L6.98438 14.4716L3.0661 10.6466C2.86182 10.4472 2.78846 10.1491 2.87688 9.87767C2.96529 9.60623 3.20014 9.40852 3.48269 9.36767L8.90204 8.58415L11.3274 3.66812C11.4816 3.35551 11.8309 3.19038 12.1704 3.26956ZM11.25 7.21528L10.0726 9.60179C9.96329 9.82336 9.75185 9.97688 9.50732 10.0122L5.20131 10.6348L8.31391 13.6733C8.49031 13.8455 8.57082 14.0934 8.52927 14.3364L7.79505 18.6305L11.25 16.8166V7.21528Z" fill="black"/>
</svg>
